X: 1
T: Kindergarten Reel
T: 8x32R 3C (Barry Skelton, Dancers' Tribute)
T: Fig8, Hands across; Reels
P: The Reel of the Gordon Highlanders
C: Pipe-Major Stuart D. Samson
R: reel
Z: 2010 John Chambers <jc:trillian.mit.edu>
S: Scanned MS of unknown origin, from Malcolm Brown tradtunes 2010-7-22
M: C|
L: 1/8
K: A
   ce | "A"a2A2 "(A7)"AecA | "D"d2f2 f2ed |1 "A"c2ec "F#m"AecA | "Bm"c2B2 "E7"B2 :|2 "A"c2af "E7"ecdB | "A"c2A2 A2 :|
|: ed | "A"c2ec "(A7)"AecA | "D"d2f2 f2ed |1 "A"c2ec "F#m"AecA | "Bm"c2B2 "E7"B2 :|2 "A"c2af "E7"ecdB | "A"c2A2 A2 :|
|: ce | "A"aaAa       caea | "D"ffad dafa |1 "A"ceaf "F#m"ecBA | "Bm"c2B2 "E7"B2 :|2 "A"ceaf "E7"ecdB | "A"c2A2 A2 :|
|: ed | "A"c2ec "(A7)"AecA | "D"d2fd AfdA |1 "A"c2ec "F#m"AecA | "Bm"c2B2 "E7"B2 :|2 "A"c2af "E7"ecdB | "A"c2A2 A2 :|
